X:1
T:Redeeming Grace
T:Victor H. Benke
T:Redeeming Grace
T:Public Domain
T:Public Domain
C:Victor H. Benke
Z:Public Domain
%%score ( 1 2 ) ( 3 4 )
L:1/8
M:3/4
K:Bb
V:1 treble 
V:2 treble 
V:3 bass 
V:4 bass 
V:1
 [Fd][DB] [EG] | [DF]3 [DG] [DB]>[DG] | [EA]3 [Ec] [Ec][EG] | [EB]3 [EA] [EG]>[EA] | %4
w: 1.~Wake thou, my|harp, O Might- y|Love, That fills the|bound- less realm a-|
w: 2.~Thou great First|Cause of mor- tal|good, Whose throne thro’|end- less years has|
w: 3.~The spark has|kin- dled to a|flame; My soul, re-|joic- ing in Thy|
w: 4.~And when my|spir- it flees a-|way From all that|cheers life’s fleet- ing|
 [DF]3 [Fd] [DB][EG] | [DF]3 [^C=E] [DF][Fd] | [Ac]3 [Ac] [Fd][DB] | [CA]3 [B,G] [DB]>[CA] | %8
w: bove! Sweep thou, my|strings, for I would|sing Re- deem- ing|grace thro’ Christ my|
w: stood, In- struct my|fee- ble voice to|sing Re- deem- ing|grace thro’ Christ my|
w: Name, Bids all with-|in me join and|sing Re- deem- ing|grace thro’ Christ my|
w: day, With saints a-|round Thy throne I’ll|sing Re- deem- ing|grace thro’ Christ my|
 [A,F]3 ||"^Refrain" F[FB] [Fc] | [Fd]3 [FB] [EG][EB] | [DF]3 [FB] [Fc][Fd] | %12
w: King.||||
w: King.||||
w: King.|Re- deem- ing|re- deem- ing grace,|That gives my soul|
w: King.||||
 [Ge]3 [EG] [=Ec]>[EB] | [FA]3 [Fc] [Fd][Fe] | [Bf]3 [Fd] [Ge]>[Fd] | (F2 E)[Gc] [Gd][Ec] | %16
w: ||||
w: ||||
w: a rest- ing place;|I’ll sing, while time|rolls on a- pace,|Re- * deem- ing grace,|
w: ||||
 [DF]3 [FB] [FB][Fc] | [FB]3 |] %18
w: ||
w: ||
w: deem- ing grace. *||
w: ||
V:2
 x3 | x6 | x6 | x6 | x6 | x6 | x6 | x6 | x3 || F x2 | x6 | x6 | x6 | x6 | x6 | G3 x3 | x6 | x3 |] %18
w: ||||||||||||||||||
w: ||||||||||||||||||
w: |||||||||grace,||||||re-|||
V:3
 z3 | (z F, B,) z3 | (z F,) A, z3 | z C, F, z3 | (z F, B,) z3 | (z F, B,) z3 | (z F, A,) z3 | %7
 (z =E, G,) z3 | (z C, F,) || F,[D,B,] [C,A,] | [B,,B,]3 [D,B,] [E,B,][G,B,] | %11
 B,3 [D,B,] [C,A,][B,,B,] | [E,B,]3 [E,B,] [C,B,]>[C,C] | [F,C]3 [E,A,] [D,B,][C,A,] | %14
 [D,B,]3 [B,,B,] [G,=B,]>[G,B,] | (=B,2 C)[E,C] [E,C][E,G,] | [F,B,]3 [F,D] [F,D][F,E] | [B,,D]3 |] %18
V:4
 x3 | B,,2 x4 | C,2 x4 | F,,2 x4 | B,,2 x4 | B,,2 x4 | C,2 x4 | C,2 x4 | F,,2 x || F, x2 | x6 | %11
 B,3 x3 | x6 | x6 | x6 | G,3 x3 | x6 | x3 |] %18

